icon-themes/sifr_svg/cmd/lc_linecirclearrow.svg

<svg viewBox="0 0 24 24" xmlns="http://www.w3.org/2000/svg"><path d="m17 8c.30945 0 .55232.0903.75.28125l4.25 3.71875c-1.41667 1.073-2.83333 2.64574-4.25 3.71875-.19768.19095-.44055.28125-.75.28125h-.585938-.414062v-1c0-.25689.12983-.52845.3125-.71875l1.509766-1.28125h-9.996094a2.9999971 3.0000048 0 0 1 -2.826172 2 2.9999971 3.0000048 0 0 1 -3-3 2.9999971 3.0000048 0 0 1 3-3 2.9999971 3.0000048 0 0 1 2.824219 2h9.998047l-1.509766-1.28125c-.18267-.19029-.3125-.46186-.3125-.71875v-1h.414062z" fill="#555753"/></svg>

<svg xmlns="http://www.w3.org/2000/svg" viewBox="0 0 24 24">
 <path
     style="fill:#555753"
     d="m 17,8 c 0.30945,0 0.55232,0.0903 0.75,0.28125 L 22,12 c -1.41667,1.073 -2.83333,2.64574 -4.25,3.71875 C 17.55232,15.9097 17.30945,16 17,16 L 16.414062,16 16,16 16,15 c 0,-0.25689 0.12983,-0.52845 0.3125,-0.71875 L 17.822266,13 7.826172,13 A 2.9999971,3.0000048 0 0 1 5,15 2.9999971,3.0000048 0 0 1 2,12 2.9999971,3.0000048 0 0 1 5,9 2.9999971,3.0000048 0 0 1 7.824219,11 L 17.822266,11 16.3125,9.71875 C 16.12983,9.52846 16,9.25689 16,9 L 16,8 16.414062,8 17,8 Z"
     />
 </svg>
